X: 1
T: Schottis från Svartnö #43
T: efter Hugo Alfvén
M: 2/4
L: 1/16
K: G
O: Svartnö
Q: 100
|G2 AB (cd)ed| d2d2 F3e| d2d2 F3e| d2d2 G4| G2 AB (cd)ed|
d2d2 F3e| d2cc B2A2 |[1G4 z4 :|[2 G4 z2 d2|: g2g2 e2fg|
f6 f2| e2e2 c2de | d6 d2| (DF)Ac e2d2| F2A2 A4|
(DF)Ac e2d2|[1 G4 z2 d2:|[2G4 z4|]

